icon-themes/breeze_svg/cmd/sc_color.svg

<svg viewBox="0 0 16 16" xmlns="http://www.w3.org/2000/svg">/&gt;<path d="m2 2v1h4v9h1v-9h4v-1zm10 4c-.38917 1.27687-1.36131 2.37115-1.78125 3.25-.14695.2613-.21875.55798-.21875.875 0 1.03875.892 1.875 2 1.875s2-.83625 2-1.875c0-.31702-.10302-.6137-.25-.875-.41994-.87885-1.36084-1.97313-1.75-3.25zm-10 7v1h12v-1z" fill="#4d4d4d"/></svg>

<svg xmlns="http://www.w3.org/2000/svg" viewBox="0 0 16 16">
     />
 <path 
     style="fill:#4d4d4d" 
     d="M 2 2 L 2 3 L 6 3 L 6 12 L 7 12 L 7 3 L 11 3 L 11 2 L 2 2 z M 12 6 C 11.61083 7.27687 10.63869 8.37115 10.21875 9.25 C 10.0718 9.5113 10 9.80798 10 10.125 C 10 11.16375 10.892 12 12 12 C 13.108 12 14 11.16375 14 10.125 C 14 9.80798 13.89698 9.5113 13.75 9.25 C 13.33006 8.37115 12.38916 7.27687 12 6 z M 2 13 L 2 14 L 14 14 L 14 13 L 2 13 z "
     />
 </svg>
